X:701
M:C|
L:1/8
K:C
e|gagf ecce|gage fdde|gagf ecaf|ecGB c2 ce|gagf ecce|
gage fddf|eceg fagf|ecdB c2c||

